X: 183
T: A Fig For A Kiss
R: slip jig
M: 9/8
K: Edorian
|:G2 B E2 B BAG|F2 A D2 d AGF|
G2 B E2 B BAG|B/c/dB A>GF E3:|
|:g2 e g2 e e2 B|f2 d f2 d A2 f|
[1 g2 e g2 e e2 B|d>BG G2 d e2 f:|
[2 g2 e f2 d e2 c|BdB A>GF E3||

